X:1
T:Befiehl dem Herrn deine Wege!
T:Befiehl dem Herrn deine Wege!
T:Max Reger
C:Max Reger
%%score [ 1 2 ] { ( 3 4 ) | ( 5 6 ) }
L:1/8
Q:1/4=120
M:4/4
K:G
V:1 treble nm="Soprano" snm="S"
V:2 treble nm="Alto" snm="A"
V:3 treble nm="Organ"
V:4 treble 
V:5 bass 
V:6 bass 
V:1
 z8 | z8 |[Q:1/4=120] z8 | z8 | z8 | z4!p!!<(! B4 | d6 c2 | B4!<)! A2 G2 |!>(! (A3 B!>)! G2) B2 | %9
w: |||||Be-|fiehl dem|Herrn dei- ne|We- * ge und|
!<(! (e4!<)! f3 e | d4)!>(! c2 B2!>)! | A6 z2!mp! | (d4"^crescendo" B2 G2) | (e6 d2) | (B4 c2 d2) | %15
w: hof- * *|* fe auf|ihn,|er _ _|wird's _|wohl _ _|
 (e4 f2!>(! e2)!>)! | ^d4 e4 |!<(! (f4!<)! B2) A2 | (G2 A!>(!B) c3 B!>)! |!p! B4 z2"^meno" d2!p! | %20
w: ma- * *|chen, und|hof- * fe,|hof- * * fe auf|ihn. Be-|
 (A2 B2!<(! c2) e2 | (A2 B2 c2) d2!<)! | (e2 g2) f3 e |!f! (d3!>(! c)!>)! B2!<(! (AB) | %24
w: fiehl, _ _ be-|fiehl _ _ dem|Herrn _ dei- ne|We- * ge und _|
 (c2 B!<)!c!f! dcde) | A2!>(! (Bc) d2 cB!>)! | A6!p!"^e sempre crescendo" A2 | B6 B2 | c4 c2 e2 | %29
w: hof- * * * * * *|fe und _ hof- fe auf|ihn, be-|fiehl dem|Herrn dei- ne|
 d4 A2 ^A2 | (B4 d2 g2- |!ff! g2 =f2 edcB |!>(! A4) B2 c2 | (d2 GA) B2!>)! (A>G) |!p! G4 z4 | z8 | %36
w: We- ge und|hof- * *||* fe und|hof- * * fe auf _|ihn,||
 z2!f! ^c2 f3 e |!<(! (d2 ^d2) e3 =d!<)! | (^cBcd e2 dc) | B4 (^c2 d2) | (d2 G2) A2 B2 | %41
w: Be- fiehl dem|Herrn _ dei- ne|We- * * * * * *|ge und _|hof- * fe und|
!>(! (cBAG) A2"^rit." (G!>)!F) |!p! G4 z4 | z8 | z8 | z8 | z8 | z8!p! | z4 z2!<(! G2 | %49
w: hof- * * * fe auf _|ihn.||||||Be-|
 (e3 d c2) B2!<)! | (A2 B2) c2 d2 | e4 d2 (cB) | (c2 d2) e2 (fe) | d6 z2 |!p! c6 z2 | %55
w: fiehl _ _ dem|Herrn _ dei- ne|We- ge und _|hof- * fe auf _|ihn,|er,|
 _e4!<(! d2 c2!<)! | (B4!>(! A4)!>)! | G4!pp! G4 |!<(! c4 B4!<)! | A4 G2 A2 | B4 G2 B2 | %61
w: er wird's wohl|ma- *|chen, be-|fiehl dem|Herrn dei- ne|We- ge und|
 (d2 c2 B2)!>(! A>G!>)! |!pp! G4 z4 |] %63
w: hof- * * fe auf|ihn.|
V:2
 z8 | z8 | z8 | z8 | z8 | z8 | z8 | z8 | z8 | z8 | z8 | z8 | z4!mp! G4"^crescendo" | G4 F4 | %14
w: ||||||||||||Be-|fiehl dem|
 (G2 F2 =FE D2) | (C2 G2 AB) c2 | (B2 A2!>(! GA B2 | A2 BA)!>)! G2!<(! F2!<)! | E4!>(! E2 F2!>)! | %19
w: Herrn _ _ _ _|dei- * * * ne|We- * * * *|* * * ge und|hof- fe auf|
!p! G4 z4 | z4"^meno" z2!p! c2 |!<(! (F2 ^G2 A2) =G2 | (G2!<)! B2) A3 G |!f! A4!>)!!>(! G2 z2 | %24
w: ihn.|Be-|fiehl _ _ dem|Herrn _ dei- ne|We- ge|
 z8 | z8 | z2!p! F2"^e sempre crescendo" E2 (FE) | (^D2 EF G2 =F2) | (E2 =FG A2) G2 | %29
w: ||be- fiehl dem _|Herrn _ _ _ _|dei- * * * ne|
 (A3 G) ^F2 E2 | (D2 GF) =F2 (EG) |!ff! (c2 d2 cBAG- | G2!>(! F2) G2 F2 | (=F2 E2) D2 (C>!>)!B,) | %34
w: We- * ge und|hof- * * fe, und _|hof- * * * * *|* * fe, und|hof- * fe auf _|
!p! B,4 z4 | z8 | z4 z2!f! F2 |!<(! B3 A (^G2 B2)!<)! | (A^GAB ^c2) (BA) | (^G2 =G2) (FE)(D=C) | %40
w: ihn.||Be-|fiehl dem Herrn _|dei- * * * * ne _|We- * ge _ und _|
 (B,2 ^C2) =C2 (B,E) |!>(! (EDCB,) C2"^rit." (B,!>)!C) |!p! B,4"^a tempo" z4 | z8 | z8 | z8 | z8 | %47
w: hof- * fe, und _|hof- * * * fe auf _|ihn.|||||
 z4 z2!p! D2 |!<(! (B3 A!<)! G2) (D=F) | (G3 =F) E2 (DE) | (^F2 ^G2) A2 (=G=F) | (E2 F2) G2 ^G2 | %52
w: Be-|fiehl _ _ dem _|Herrn _ dei- ne _|We- * ge und _|hof- * fe, und|
 (A2 BA) =G2 A2 | (A4 G2) (A_B) | A6 z2 | c4!<(! B2 A2!<)! | (G6!>(! F2)!>)! | G4!pp! B,4 | %58
w: hof- * * fe auf|ihn, _ denn _|er,|er wird's wohl|ma- *|chen, be-|
!<(! C4!<)! (D2 E2) | F4 E2 E2 | ^D4 E2 G2 | (=F2 E2 D2)!>(! C>B,!>)! |!pp! B,4 z4 |] %63
w: fiehl dem _|Herrn dei- ne|We- ge und|hof- * * fe auf|ihn.|
V:3
!p! (B4!<(! [CA]4 | B4!<)! d4 | c2 B2 A4 | B4 G4 | F8 | E4) (B4 | d6 c2 | B4 A4 | A4) G2 B2 | c8 | %10
 B4 A2 G2 | F4 A4 | d8 | e6 d2 | B4 c2 d2 | e4 f2 e2 | ^d4 e4 | f2 ^d2 e2 B2- | B2 AB c4 | B6 d2 | %20
 A2 B2 c4 | c2 B2 c2 d2 | e4 f3 e | d6 B2 | c8 | A6 G2 | F2 A6 | B8 | c6 e2 | d4 A2 ^A2 | %30
 B4 d2 cB | A2 B2 c3 B | A4 d4- | d2 c2 B2 A2 | G6 ^G2 | A4 B2 ^c2 | ^c8 | B8 | [A^c]6 BA | %39
 ^GA B2 ^c2 d2- | d2 e2 d4 | c3 B A2"^rit." BA | GA B2 c2 B2 | e4 ^d2 [df]2 | b4 g4 | a4 b4 | g8- | %47
 g4 [fd'-]4 | [dg-bd']8"^sempre ben legato" | [egc'e']6 [d-gbd'-]2 | %50
 [d-fad'-]2 [d=f^gbd']2 [ceac']2 [d=g-b]2 | [e-gc'-e'-]2 [e^fac'e']2 [dgbd']2 [e-^ge'-]2 | %52
 [efac'e']2 [d=g-d']2 [ege']2 [df-d'][cef-c'] | [d-fd'-]4 [dgd']2 [_d=e_d']2 | [cc']8- | %55
 [c_ac']4 [=Bg=b]2 [A^fa]2 | [Gg]6 [F^f]2 |!ppp! [Gg]8- | [Gg]8 | [Ff]4 [Ee]4 | [^D^d]4 [Ee]4 | %61
 [=D=d]2 [Ee]2 [GB]2 [Dd]2- | [Dd]8 |] %63
V:4
 (E8 | E4) F4 | E4 F4 | G2 F2 E4- | F4 ^D4 | B,4 E4 | F6 E2 | D4 E4 | F4 E4- | E4 F3 E | G2 F2 E4 | %11
 D6 _E2 | D4 G4- | G4 F4 | G8- | G4 A4 | F4 EF G2 | F3 A G2 F2 | G2 E4 F2 | D4 GF =F2 | E8 | %21
 F2 =F2 E2 =G2- | G4 F3 G | AG F2 G4- | G8- | G4 F2 E2 | F4 E4 | ^D2 EF G2 =F2 | E2 =FG A2 G2 | %29
 A3 G ^F2 E2 | D2 GF =F2 E2- | E8 | E2 D6 | =F2 E2 D4 | B,4 E4- | E2 F4 G2 | F8- | F4 [E-^G]4 | %38
 E6 F2 | ^G2 =G2 F4 | G4 A2 E2 | E4 EFGF | EF G2- GA G2- | G2 A2 B4 | e8 | g4 f4 | e8 | _e4 d4 | %48
 x8 | x8 | x8 | x8 | x8 | x8 | =f6 g2 | x8 | B4 A4 | B8 | c4 B4 | A4 G2 A2 | B4 G2- [GB]2 | %61
 =F2 E^F D2 A2 | G8 |] %63
V:5
"^con pedal (soft 16'+8')" G,4 [F,A,]4 | G,8 | A,8 | D4 C4- | C4 B,2 A,2 | G,8 | B,6 G,2- | %7
 G,2 B,2 C4 | B,6 G,2- | G,2 ^G,2 A,2 C2 | D4 C2 B,2 | A,4 F,4- | F,2 G,2 D4 | C8 | D4 =FE D2 | %15
 C2 D2 C4 | B,2 A,2 G,A, B,2- | B,8- | B,4 A,4 | G,6 ^G,2 | A,2 ^G,2 A,4- | A,2 ^G,2 A,2 D2 | %22
 C2 B,6 | D4 B,2 D2 | C4 E4- | E4 D2 G,2 | D4 A,4 | F,2 B,4 G,2- | G,2 C6- | C4 D2 C2 | B,2 G,6- | %31
!ff! [G,C]2 [^G,B,]2 A,4- | A,G, F,2 G,2 C2 | B,A, G,4 F,2 |!p! D,4 B,4 | C2 D4 E2 |!f! ^A,6 ^C2 | %37
 D2 ^D2 E3 =D | ^C6 F2 | B,2 ED ^CED=C | B,2 ^C2 =C2 B,2 | A, E2 D A,C B,2- |!p! B,4 E D3 | %43
 C2 E2 F2[K:treble] A2 |"^senza Ped." B8 | ^c4 d4 | B4 _B4 | A8 |!ppp! G8- |!<(! G8 | %50
 [FA]2!<)! [=F^G]2 AF B2 | [Cc]4 [G,DG]2 [E-^G]2 | [A,EA]2 [B,=G-B]2 [CGc]2 [A,CA-]2 | A4 G4 | %54
"^con Ped." [C-A]6 [C-G]2 | [C-_A]2 [C-_E][C=F] [=B,G]2 [C^F-]2 | [B,F]2 [D=F]2 [CE]2 [CD]2 | %57
 [B,-D]4 [B,^D]4 | [CE]4 [B,D]4 | C8 | F,2 B,4- B,G, | _A,2 G,4 ^F,C |!ppp! [G,B,]8 |] %63
V:6
 E,4 A,,4 | E,4 B,,4 | C,4 D,2 C,2 | B,,4 C,2 B,,2 | A,,4 B,,4 | E,8 | B,,6 C,2 | G,,4 C,4 | %8
 ^D,,4 E,,2 D,2 | C,2 B,,2 A,,4 | B,,4 C,2 ^C,2 | D,4 C,4 | B,,8 | C,2 B,,2 A,,2 D,2 | %14
 G,,4 A,,2 B,,2 | C,2 B,,2 A,,4 | B,,4 C,2 ^C,2 | ^D,2 B,,2 ^C,2 D,2 | E,2 G,,2 A,,2 D,2 | %19
 G,,4 B,,4 | C,2 B,,2 A,,4 | D,4 A,,2 B,,2 | C,2 ^C,2 ^D,2 E,2 | F,2 D,2 G,2 =F,2 | E,4 A,,4 | %25
 D,4 B,,2 C,2 | D,4 ^C,2 =C,2 | B,,2 ^C,^D, E,2 =D,2 | =C,2 D,E, =F,2 E,2 | ^F,3 E, D,4 | %30
 G,,2 A,,2 B,,2 C,2 | E,,4 A,,2 C,2 | D,3 C, B,,2 A,,2 | G,,2 C,2 D,2 D,,2 | G,,2 F,,2 E,,2 C,B,, | %35
 A,,2 D,2 G,,2 E,2 | F,,4 F,2 F,,2 | B,,4 E,,4 | A,,4 ^C,,2 D,,^D,, | E,,4 ^A,,2 B,,=A,, | %40
 G,,2 E,,2 F,,2 ^G,,2 | A,,2 E,2 C,2 ^D,,2 | E,,4- E,,F,, G,,2 | C,4 B,,2[K:treble] z2 | G4 E4- | %45
 E4 D4- | D4 ^C4 | =C4!p! D4 | [G,D]8 | C6 [G,D]2 | D4 [A,E]2 [B,D=G]2 | [EG]2 [FA]2 x4 | x8 | %53
 B,6!ppp! _B,2 | =F,6 E,2 | _E,2 C,2 D,2 ^D,2 | E,2 B,,2 C,2 =D,2 | G,,4 =F,,4 | E,,4 G,,4 | %59
 A,,2 B,,2 C,4 | B,,4 E,,4 | B,,2 C,2 D,2 D,,2 | G,,8 |] %63

